X:240
T:Stoney Steps,aka TS.240
T:Hornpipe,untitled in MS TS.240
M:C
L:1/8
Q:1/2=90
S:Thomas Sands’ MS,1810,Lincolnshire
R:.hornpipe
N:Similar setting to “Stoney Steps” in Gibbons and Clare MSS
O:England;Lincolnshire
Z:vmp.Ruairidh Greig, 2011
K:Bb
ed/c/|BFDB, B,Ace|dfdB BAGF|EGcB AFdF|CAce dcBA|
BFDB, B,Ace|dfdB BAGF|E3g fdcB|FBAcB2:|
|:g2|fgab fdcB|egec BAGF|EGcB AFdF|CAcdc2ga|
bfdB Fafd|Egec BAGF|E3g fdcB|FBAcB2:|]

